!!!!SEGMENT: pl-wnifc--6670-n--001-018_gall-jan-karol--piesni-polskie-na-chor-meski-z-i-6-nuz-my-bracia-pastuszkowie.krn
!!!cenid: 19xx:186
!!!COM: Gall, Jan Karol
!!!COM-rismID: pe50042628
!!!CDT: 1856-1912
!!!CNT: Polish
!!!GTL: Pieśni polskie na chór męski (z. I)
!!!OTL: 6. Nuż my bracia pastuszkowie
!!!OMV: 018
!!!PDT:
!!!AGN:
!!!YEC: Copyright 2022 Narodowy Instytut Fryderyka Chopina (https://polishscores.org)
!!!YEM: License CC-BY-4.0 (https://creativecommons.org/licenses/by/4.0)
!!!SMS-siglum: PL-Wnifc
!!!SMS-shelfmark: 6670/n
!!!SMS-variant:
!!!SMS-altvar:
!!!SMS-shelfwork: 001-018 G
!!!NIFC-rismSourceID: 1001152877
!!!NIFC-rismChildID: 1001152906
!!!NIFC-islandoraID: nifc:213182
!!!URL-pdf-islandora: https://repozytorium.nifc.pl/islandora/object/nifc:213182/datastream/PDF/view
!!!URL-scan: https://polish.musicsources.pl/pl/lokalizacje/galeria/druki-muzyczne/16895/9 @EN{Scan on Polish Music Sources Website} @PL{Skany w portalu Dziedzictwo Muzyki Polskiej w otwartym dostępie}
!!!IIIF:
!!!ONB-nifc:
!!!AIN: 1 bass 1 tenor
!!!key: A
**kern	**kern	**text	**text	**dynam
*part2	*part1	*part1	*part1	*part1
*staff2	*staff1	*staff1	*	*
*ICvox	*ICvox	*	*	*
*Ibass	*Itenor	*	*	*
*I"Basy.	*I"Tenory.	*	*	*
*I'	*I'	*	*	*
*clefF4	*clefGv	*	*	*
*k[f#c#g#]	*k[f#c#g#]	*	*	*
*A:	*A:	*	*	*
*M3/4	*M3/4	*	*	*
*	*ITrd8c12	*	*	*
*>[A,A]	*>[A,A]	*>[A,A]	*>[A,A]	*>[A,A]
=1	=1	=1	=1	=1
*>A	*>A	*>A	*>A	*>A
*^	*^	*	*	*
!!LO:TX:a:B:t=Giojoso.
!	!	!	!	!	!	!LO:DY:a:rj
8AA/	8AA\	8A/	8A\	Nuż	Kra-	p
8AA/	8AA\	8A/	8A\	my	-ko-	.
4AA/	4AA\	4A/	4A\	bra-	-wia-	.
4E/	4AA\	4c#/	4A\	-cia	-czek	.
=2	=2	=2	=2	=2	=2	=2
8A/	8AA\	8e/	8c#\	pas-	ho-	.
8A/	8AA\	8e/	8c#\	-tusz-	-ży	.
4A/	4AA\	4e/	4c#\	-ko-	mło-	.
4E/	4AA\	4c#/	4A\	-wie	-dy	.
=3	=3	=3	=3	=3	=3	=3
8A/	8AA\	8e/	8c#\	kum-	na	.
8A/	8AA\	8e/	8c#\	-pa-	te	.
4A/	4AA\	4e/	4c#\	-no-	go-	.
4E/	4AA\	4c#/	4A\	-wie	-dy	.
=4	=4	=4	=4	=4	=4	=4
2A/	2AA\	2e/	2c#\	wszyst-	wziął	.
4A/	4AA\	8f#/L	8d\L	-scy	za	.
.	.	8e/J	8c#\J	.	.	.
!!LO:LB:g=original
=5	=5	=5	=5	=5	=5	=5
8F#/	8AA\	8d/	8A\	ra-	pas	.
8F#/	8AA\	8d/	8A\	-zem	fu-	.
4G#/	4AA\	4d/	4B\	bież-	-jar-	.
4A/	4AA\	4c#/	4c#\	-my	-kę,	.
=6	=6	=6	=6	=6	=6	=6
2A/	2AA\	2e/	2c#\	do	kasz-	.
4A/	4AA\	8f#/L	8d\L	Be-	-ki	.
.	.	8e/J	8c#\J	.	.	.
=7	=7	=7	=7	=7	=7	=7
8F#/	8AA\	8d/	8A\	-tle-	drob-	.
8F#/	8AA\	8d/	8A\	-em	-nej	.
4G#/	4AA\	4d/	4B\	spiesz-	miar-	.
4A/	4AA\	4c#/	4A\	-my	kę	.
=8	=8	=8	=8	=8	=8	=8
8E/	8E\	8B/	8A\	a-	za-	.
8E/	8E\	8B/	8A\	-nie-	-krze-	.
4E/	4E\	4B/	4G#\	-li	-saw-	.
8E/L	4E\	4E/	4E\	nam	-szy	.
8D/J	.	.	.	.	.	.
!!LO:LB:g=original
=9	=9	=9	=9	=9	=9	=9
8C#/	8AA\	8A/	8E\	roz-	pod-	.
8C#/	8AA\	8A/	8E\	-ka-	-ków-	.
4E/	4AA\	4c#/	4A\	-za-	-ka-	.
4C#/	4AA\	4e/	4A\	-li	-mi	.
=10	=10	=10	=10	=10	=10	=10
8E/	8E\	8B/	8A\	byś-	i	.
8E/	8E\	8B/	8A\	-my	brzek-	.
4E/	4E\	4B/	4G#\	Bo-	-ną-	.
8E/L	4E\	4E/	4E\	-ga	-wszy	.
8D/J	.	.	.	.	.	.
=11	=11	=11	=11	=11	=11	=11
8C#/	8AA\	8A/	8E\	o-	kó-	.
8C#/	8AA\	8A/	8E\	-glą-	-łecz-	.
4E/	4AA\	4c#/	4A\	-da-	-ka-	.
4C#/	4AA\	4e/	4A\	-li	-mi	.
=12	=12	=12	=12	=12	=12	=12
8D/	8AA\	8f#/	8G#\	na-	s kocz-	.
8D/	8AA\	8e/	8G#\	-ro-	-no	.
4D/	4AA\	4B/	4G#\	-dzo-	po-	.
4D/	4AA\	4e/	4G#\	-ne-	-bie-	.
=13	=13	=13	=13	=13	=13	=13
[4C#/	[4AA\	[4A/	[4A\	-go._	-żał._	.
8C#/]	8AA\]	8A/]	8A\]	.	.	.
8r	4.ryy	8r	4.ryy	.	.	.
4r	.	4r	.	.	.	.
*v	*v	*	*	*	*	*
*	*v	*v	*	*	*
=:|!	=:|!	=:|!	=:|!	=:|!
*-	*-	*-	*-	*-
!!!system-decoration: [(s1,s2)]
!!!RDF**kern: > = above
!!!RDF**kern: < = below
!!!RDF**kern: N = linked
!!!ENC: Filip Voros
!!!EED: Katarzyna Serwa
!!!END: 2024-05-03
!!!EEV: 2025-03-09
